client/filepreviewer/pdfjs/web/images/cursor-editorFreeHighlight.svg

<svg width="18" height="19" viewBox="0 0 18 19" fill="none" xmlns="http://www.w3.org/2000/svg">
<path fill-rule="evenodd" clip-rule="evenodd" d="M12.2 3.09C12.28 3.01 12.43 3 12.43 3C12.48 3 12.58 3.02 12.66 3.1L14.45 4.89C14.58 5.02 14.58 5.22 14.45 5.35L11.7713 8.02872L9.51628 5.77372L12.2 3.09ZM13.2658 5.12L11.7713 6.6145L10.9305 5.77372L12.425 4.27921L13.2658 5.12Z" fill="#FBFBFE"/>
<path fill-rule="evenodd" clip-rule="evenodd" d="M5.98 9.32L8.23 11.57L10.7106 9.08938L8.45562 6.83438L5.98 9.31V9.32ZM8.23 10.1558L9.29641 9.08938L8.45562 8.24859L7.38921 9.315L8.23 10.1558Z" fill="#FBFBFE"/>
<path fill-rule="evenodd" clip-rule="evenodd" d="M10.1526 13.1816L16.2125 7.1217C16.7576 6.58919 17.05 5.8707 17.05 5.12C17.05 4.36931 16.7576 3.65084 16.2126 3.11834L14.4317 1.33747C13.8992 0.79242 13.1807 0.5 12.43 0.5C11.6643 0.5 10.9529 0.812929 10.4329 1.33289L3.68289 8.08289C3.04127 8.72452 3.00459 9.75075 3.57288 10.4363L1.29187 12.7239C1.09186 12.9245 0.990263 13.1957 1.0007 13.4685L1 14.5C0.447715 14.5 0 14.9477 0 15.5V17.5C0 18.0523 0.447715 18.5 1 18.5H16C16.5523 18.5 17 18.0523 17 17.5V15.5C17 14.9477 16.5523 14.5 16 14.5H10.2325C9.83594 14.5 9.39953 13.9347 10.1526 13.1816ZM4.39 9.85L4.9807 10.4407L2.39762 13.0312H6.63877L7.10501 12.565L7.57125 13.0312H8.88875L15.51 6.41C15.86 6.07 16.05 5.61 16.05 5.12C16.05 4.63 15.86 4.17 15.51 3.83L13.72 2.04C13.38 1.69 12.92 1.5 12.43 1.5C11.94 1.5 11.48 1.7 11.14 2.04L4.39 8.79C4.1 9.08 4.1 9.56 4.39 9.85ZM16 17.5V15.5H1V17.5H16Z" fill="#FBFBFE"/>
<path d="M15.1616 6.05136L15.1616 6.05132L15.1564 6.05645L8.40645 12.8064C8.35915 12.8537 8.29589 12.88 8.23 12.88C8.16411 12.88 8.10085 12.8537 8.05355 12.8064L7.45857 12.2115L7.10501 11.8579L6.75146 12.2115L6.03289 12.93H3.20465L5.33477 10.7937L5.6873 10.4402L5.33426 10.0871L4.74355 9.49645C4.64882 9.40171 4.64882 9.23829 4.74355 9.14355L11.4936 2.39355C11.7436 2.14354 12.0779 2 12.43 2C12.7883 2 13.1179 2.13776 13.3614 2.38839L13.3613 2.38843L13.3664 2.39355L15.1564 4.18355L15.1564 4.18359L15.1616 4.18864C15.4122 4.43211 15.55 4.76166 15.55 5.12C15.55 5.47834 15.4122 5.80789 15.1616 6.05136ZM7.87645 11.9236L8.23 12.2771L8.58355 11.9236L11.0642 9.44293L11.4177 9.08938L11.0642 8.73582L8.80918 6.48082L8.45562 6.12727L8.10207 6.48082L5.62645 8.95645L5.48 9.10289V9.31V9.32V9.52711L5.62645 9.67355L7.87645 11.9236ZM11.4177 8.38227L11.7713 8.73582L12.1248 8.38227L14.8036 5.70355C15.1288 5.37829 15.1288 4.86171 14.8036 4.53645L13.0136 2.74645C12.8186 2.55146 12.5792 2.5 12.43 2.5H12.4134L12.3967 2.50111L12.43 3C12.3967 2.50111 12.3966 2.50112 12.3965 2.50112L12.3963 2.50114L12.3957 2.50117L12.3947 2.50125L12.3924 2.50142L12.387 2.50184L12.3732 2.50311C12.3628 2.50416 12.3498 2.50567 12.3346 2.50784C12.3049 2.51208 12.2642 2.51925 12.2178 2.53146C12.1396 2.55202 11.9797 2.60317 11.8464 2.73645L9.16273 5.42016L8.80918 5.77372L9.16273 6.12727L11.4177 8.38227ZM1.5 16H15.5V17H1.5V16Z" stroke="#15141A"/>
</svg>

<svg xmlns="http://www.w3.org/2000/svg" width="18" height="19" fill="none" viewBox="0 0 18 19"><path fill="#fbfbfe" fill-rule="evenodd" d="M12.2 3.09c.08-.08.23-.09.23-.09.05 0 .15.02.23.1l1.79 1.79c.13.13.13.33 0 .46l-2.679 2.679-2.255-2.255zm1.066 2.03L11.77 6.614l-.84-.84 1.494-1.495zM5.98 9.32l2.25 2.25 2.48-2.48-2.254-2.256L5.98 9.31zm2.25.836 1.066-1.067-.84-.84-1.067 1.066z" clip-rule="evenodd"/><path fill="#fbfbfe" fill-rule="evenodd" d="m10.153 13.182 6.06-6.06a2.78 2.78 0 0 0 .837-2.002c0-.75-.292-1.47-.837-2.002l-1.781-1.78A2.78 2.78 0 0 0 12.43.5c-.766 0-1.477.313-1.997.833l-6.75 6.75a1.755 1.755 0 0 0-.11 2.353l-2.281 2.288a1 1 0 0 0-.291.745L1 14.5a1 1 0 0 0-1 1v2a1 1 0 0 0 1 1h15a1 1 0 0 0 1-1v-2a1 1 0 0 0-1-1h-5.767c-.397 0-.833-.565-.08-1.318M4.39 9.85l.59.59-2.582 2.591h4.24l.467-.466.466.466H8.89L15.51 6.41c.35-.34.54-.8.54-1.29s-.19-.95-.54-1.29l-1.79-1.79c-.34-.35-.8-.54-1.29-.54s-.95.2-1.29.54L4.39 8.79c-.29.29-.29.77 0 1.06M16 17.5v-2H1v2z" clip-rule="evenodd"/><path stroke="#15141a" d="m15.162 6.051-.006.005-6.75 6.75a.25.25 0 0 1-.352 0l-.595-.594-.354-.354-.354.353-.718.719H3.205l2.13-2.136.352-.354-.353-.353-.59-.59a.255.255 0 0 1 0-.353l6.75-6.75c.25-.25.584-.394.936-.394.358 0 .688.138.931.388l.005.006 1.79 1.79.006.005c.25.243.388.573.388.931s-.138.688-.388.931Zm-7.286 5.873.354.353.354-.353 2.48-2.481.354-.354-.354-.353L8.81 6.48l-.353-.354-.354.354-2.476 2.475-.146.147v.424l.146.147zm3.542-3.542.353.354.354-.354 2.679-2.678a.82.82 0 0 0 0-1.168l-1.79-1.79a.84.84 0 0 0-.584-.246h-.017l-.016.001.033.499-.034-.499h-.009l-.014.002a1 1 0 0 0-.155.028.8.8 0 0 0-.372.205L9.163 5.42l-.354.354.354.353zM1.5 16h14v1h-14z"/></svg>
